packages/katcn/src/icons/svg/usersGroup.svg

<svg width="24" height="25" viewBox="0 0 24 25" fill="none" xmlns="http://www.w3.org/2000/svg">
<path d="M14.9 14.3761C15.5 13.6761 15.9 12.7761 15.9 11.8761C15.9 9.67607 14.1 7.97607 12 7.97607C9.90001 7.97607 8.10001 9.67607 8.10001 11.7761C8.10001 12.7761 8.50001 13.6761 9.10001 14.2761C7.80001 14.9761 6.80001 15.9761 6.20001 17.3761C5.90001 18.0761 6.00001 18.9761 6.40001 19.6761C6.90001 20.3761 7.70001 20.7761 8.50001 20.7761H15.4C16.2 20.7761 17 20.3761 17.5 19.6761C18 18.9761 18 18.1761 17.7 17.3761C17.2 16.0761 16.2 14.9761 14.9 14.3761ZM10.1 11.7761C10.1 10.7761 11 9.97607 12 9.97607C13 9.97607 13.9 10.7761 13.9 11.8761C13.9 12.9761 13 13.6761 12 13.6761C11 13.6761 10.1 12.8761 10.1 11.7761ZM15.9 18.5761C15.8 18.6761 15.6 18.7761 15.5 18.7761H8.50001C8.30001 18.7761 8.20001 18.6761 8.10001 18.5761C8.00001 18.5761 8.00001 18.3761 8.00001 18.1761C8.70001 16.5761 10.2 15.5761 12 15.5761C13.8 15.5761 15.3 16.5761 16 18.1761C16 18.3761 16 18.5761 15.9 18.5761Z" fill="black"/>
<path d="M7.3 13.5761C7.3 13.0761 6.9 12.5761 6.3 12.5761H3C3.4 11.5761 4.4 10.9761 5.5 10.9761C7.2 10.9761 8.5 9.67607 8.5 7.97607C8.5 6.27607 7.1 4.97607 5.5 4.97607C3.9 4.97607 2.5 6.27607 2.5 7.97607C2.5 8.57607 2.7 9.17607 3.1 9.67607C2.2 10.1761 1.5 10.8761 1.2 11.7761C0.899999 12.3761 0.999999 13.0761 1.3 13.6761C1.7 14.2761 2.3 14.5761 3 14.5761H6.2C6.8 14.5761 7.3 14.1761 7.3 13.5761ZM4.5 7.97607C4.5 7.37607 5 6.97607 5.5 6.97607C6 6.97607 6.5 7.47607 6.5 7.97607C6.5 8.57607 6 8.97607 5.5 8.97607C5 8.97607 4.5 8.47607 4.5 7.97607Z" fill="black"/>
<path d="M22.8 11.7761C22.4 10.8761 21.7 10.0761 20.9 9.5761C21.2 9.0761 21.5 8.4761 21.5 7.8761C21.5 6.2761 20.1 4.8761 18.5 4.8761C16.9 4.8761 15.5 6.1761 15.5 7.8761C15.5 9.5761 16.9 10.8761 18.5 10.8761C19.6 10.8761 20.6 11.4761 20.9 12.5761H17.7C17.1 12.5761 16.7 12.9761 16.7 13.5761C16.7 14.0761 17.1 14.5761 17.7 14.5761H20.9C21.6 14.5761 22.2 14.2761 22.6 13.6761C23 13.0761 23.1 12.3761 22.8 11.7761ZM18.5 6.9761C19.1 6.9761 19.5 7.4761 19.5 7.9761C19.5 8.5761 19 8.9761 18.5 8.9761C18 8.9761 17.5 8.4761 17.5 7.9761C17.5 7.3761 17.9 6.9761 18.5 6.9761Z" fill="black"/>
</svg>

<svg xmlns="http://www.w3.org/2000/svg" fill="none" viewBox="0 0 24 25"><path fill="#000" d="M14.9 14.376c.6-.7 1-1.6 1-2.5 0-2.2-1.8-3.9-3.9-3.9s-3.9 1.7-3.9 3.8c0 1 .4 1.9 1 2.5-1.3.7-2.3 1.7-2.9 3.1-.3.7-.2 1.6.2 2.3.5.7 1.3 1.1 2.1 1.1h6.9c.8 0 1.6-.4 2.1-1.1s.5-1.5.2-2.3c-.5-1.3-1.5-2.4-2.8-3m-4.8-2.6c0-1 .9-1.8 1.9-1.8s1.9.8 1.9 1.9-.9 1.8-1.9 1.8-1.9-.8-1.9-1.9m5.8 6.8c-.1.1-.3.2-.4.2h-7c-.2 0-.3-.1-.4-.2-.1 0-.1-.2-.1-.4.7-1.6 2.2-2.6 4-2.6s3.3 1 4 2.6c0 .2 0 .4-.1.4"/><path fill="#000" d="M7.3 13.576c0-.5-.4-1-1-1H3c.4-1 1.4-1.6 2.5-1.6 1.7 0 3-1.3 3-3s-1.4-3-3-3-3 1.3-3 3c0 .6.2 1.2.6 1.7-.9.5-1.6 1.2-1.9 2.1-.3.6-.2 1.3.1 1.9.4.6 1 .9 1.7.9h3.2c.6 0 1.1-.4 1.1-1m-2.8-5.6c0-.6.5-1 1-1s1 .5 1 1c0 .6-.5 1-1 1s-1-.5-1-1m18.3 3.8c-.4-.9-1.1-1.7-1.9-2.2.3-.5.6-1.1.6-1.7 0-1.6-1.4-3-3-3s-3 1.3-3 3 1.4 3 3 3c1.1 0 2.1.6 2.4 1.7h-3.2c-.6 0-1 .4-1 1 0 .5.4 1 1 1h3.2c.7 0 1.3-.3 1.7-.9s.5-1.3.2-1.9m-4.3-4.8c.6 0 1 .5 1 1 0 .6-.5 1-1 1s-1-.5-1-1c0-.6.4-1 1-1"/></svg>
